X:104
T: Melusinalied (1-29), S. 76
N: K1078
O: Luxemburg
S: KINTZELE, Guillaume: An der Ucht, Bd. 1, Luxemburg 1926]
N: in der Quelle mit einer 2. Stimme versehen
R: Legende: Untreue, Tod]
M: 3/4
L: 1/16
K: F
C2F2 | F4C4FFA2 | A2G2G4
C2E2 | G6A2B2c2 | A8
F2A2 | c4c2f2edd2 | c2d2c4
B2A2 | G2B2B4c3B | A8
F2A2 | c4c2f2edd2 | c2d2c4
B2A2 | G2B2B4c3B | A6z2

@@@ Tune index: 8158
